X:1
T:Title
%%score ( 1 2 ) { 3 | 4 }
L:1/8
M:4/4
K:F
V:1 treble nm="E.Piano 2, Unnamed-000"
V:2 treble 
V:3 bass nm="Choir Pad, Unnamed-001"
V:4 bass 
V:1
 F3 [EG] [FA]2 [Fd]2 | c4 z4 | [Cc]2 D[Ec] [Fc]A[FG]A | [Gc]2 Fc [Fc]A[FG]A | F3 [FG] [FA]2 [Fd]G | %5
w: By~Traditional~Irish~melody * * *|||||
 [Ac]2 F2 [Ec]2 F2 | [Gc]2 Fc [Ec]A[EG]A | [DF]2 [DF]2 [CF]4- | [CF]4 z4 |] %9
w: ||||
V:2
 x8 | F2 E2 [Fc]4 | x8 | x8 | x8 | x8 | x8 | x8 | x8 |] %9
V:3
 [A,C]3 [G,B,] [F,A,]2 B,2 | G,4 [F,A,]4 | [A,C]2 [G,B,]2 [F,A,]C[F,B,]A, | [E,G,]2 [F,A,]2 C4 | %4
 A,2 B,2[K:treble] C2 DE | F2 [A,C]2[K:bass] [G,B,]2 [F,A,]2 | [E,G,]2 [F,A,]2 A,CCB, | %7
 A,2 B,2 [F,A,]4- | [F,A,]4 z4 |] %9
V:4
 z4 z2 B,,2 | C,4 z4 | z8 | z4 C,4 | D,3 D, C,2 B,,2 | A,,2 z2 z4 | z4 A,,2 C,2 | D,2 B,,2 F,,4- | %8
 F,,4 z4 |] %9

